%
( CopperCAM / ISO Post-Processor )
G17 G21 G40 G80 G90
G54
G0 Z22.2
G0 X0.0 Y0.0
G0 Z11.1
()
( M06T1 )
M03 S8888
G0 F55.5 Z2.22
 F55.5 X-0.15 Y-0.15 
 F55.5   Z1.11
G1 F44.4 Z-0.01
 F100.0 X50.95  
   Y25.55 
  X-0.15  
   Y-0.15 
G0 F55.5 Z22.22
M05
()
G53 Z0.
G0 X0. Y55.
M30
%
